X:1
T:Karstorpa Lasses polka
S:efter Erik Svensson
O:Gränum, Blekinge
R:Polka
M:2/4
L:1/8
Z:Andy Davey 2018
K:D
Q:1/4=90
AdAd | cE/F/ GE | Ecce | dF/G/ AF | AdAd | cE/F/ GE | Ecce |[1 dd d2 :|[2 dd  d>A | 
|: FF/A/ DE/F/ | GB EA | cc/e/ AB/c/ | dfdA | FF/A/ DE/F/ | GB EA | cc/e/ AB/c/ |[1 dd d>A :|[2 dd d2 |

